X: 43601
T: Young Tom Ennis
R: jig
M: 6/8
K: Adorian
AB|c2A BcB|AGE GAB|c2A Bed|BAA A2B|
c2A BcB|AGE GAB|cde dBG|BAA A2:|
f|g2e age|dBG Gef|g2e agf|efg a2b|
g2e age|dBG GAB|c2A Bed|BAA A2:|

